X:004
T:Bargain Is Over (j)
B:NFID.181
004barg_o
S:DOD
N:Variant of "Behind the Bush in the Garden"
L:1/8
M:6/8
R:jig
Q:320
K:Am
B|c2A AGE|c2A AGE|edc dcB|cBA GAB|
c2d e2a|g2e ded|cBA BAG|[A3E3] [A2E2]B|
c2A AGE|c2A AGE|G2G GAE|G3 E2G|
c2d e2a|g2e ded|c2A BAG|EA2 A2||
B|c2B c2d|ege e2d|c2B c2d|e3 GAB|
c2B c2d|ege e2d|cBA BAG|[A3E3] [A2E2]B|
c2B c2d|e2e e2d|c2B c2d|e3 GAB|
c2d e2a|g2e ded|c2A BAG|EA2 A2||

%%%

